brandFactory_export/1.Light/Lista menu_1Light.svg

<?xml version="1.0" encoding="UTF-8"?>
<svg width="24px" height="24px" viewBox="0 0 24 24" version="1.1" xmlns="http://www.w3.org/2000/svg" xmlns:xlink="http://www.w3.org/1999/xlink">
    <title>1.Light/Lista menu_1Light</title>
    <g id="Symbols" stroke="none" stroke-width="1" fill="none" fill-rule="evenodd">
        <g id="1.Light/Lista-menu_1Light" fill="#5CB615" fill-rule="nonzero">
            <path d="M4.05714286,6.82521008 C3.67394958,6.82521008 3.36134454,6.52605042 3.36134454,6.15294118 C3.36806723,5.78655462 3.67394958,5.48739496 4.05714286,5.48067227 L22.9277311,5.48067227 C23.3109244,5.48067227 23.6235294,5.77983193 23.6235294,6.15294118 C23.6235294,6.52268908 23.3109244,6.82521008 22.9277311,6.82521008 L4.05714286,6.82521008 Z M1.1394958,7.28235294 C0.51092437,7.28235294 2.22044605e-16,6.77815126 2.22044605e-16,6.15630252 C2.22044605e-16,5.53445378 0.51092437,5.0302521 1.1394958,5.0302521 C1.76806723,5.0302521 2.2789916,5.53445378 2.2789916,6.15630252 C2.2789916,6.77478992 1.76806723,7.28235294 1.1394958,7.28235294 Z M22.9277311,11.7361345 C23.3109244,11.7361345 23.6235294,12.0352941 23.6235294,12.4084034 C23.6235294,12.7815126 23.3109244,13.0806723 22.9277311,13.0806723 L4.05714286,13.0806723 C3.67394958,13.0806723 3.36134454,12.7815126 3.36134454,12.4084034 C3.36134454,12.0352941 3.67394958,11.7361345 4.05714286,11.7361345 L22.9277311,11.7361345 Z M1.1394958,13.5344538 C0.51092437,13.5344538 0,13.0302521 0,12.4084034 C0,11.7865546 0.51092437,11.2823529 1.1394958,11.2823529 C1.76806723,11.2823529 2.2789916,11.7865546 2.2789916,12.4084034 C2.2789916,13.0302521 1.76806723,13.5344538 1.1394958,13.5344538 Z M22.9277311,17.9915966 C23.112605,17.9915966 23.287395,18.0621849 23.4184874,18.1865546 C23.5495798,18.3109244 23.6235294,18.4823529 23.6235294,18.6605042 C23.6235294,19.0302521 23.3109244,19.3327731 22.9277311,19.3327731 L4.05714286,19.3327731 C3.67731092,19.3260504 3.36806723,19.0302521 3.36134454,18.6605042 C3.36134454,18.2907563 3.67394958,17.9882353 4.05714286,17.9882353 L22.9277311,17.9882353 L22.9277311,17.9915966 Z M1.1394958,19.789916 C0.51092437,19.789916 0,19.2857143 0,18.6638655 C0,18.0420168 0.51092437,17.5378151 1.1394958,17.5378151 C1.76806723,17.5378151 2.2789916,18.0420168 2.2789916,18.6638655 C2.2789916,19.2857143 1.76806723,19.789916 1.1394958,19.789916 Z" id="Lista-menu_1Light"></path>
        </g>
    </g>
</svg>

<svg width="24" height="24" viewBox="0 0 24 24" xmlns="http://www.w3.org/2000/svg"><path d="M4.057 6.825a.684.684 0 01-.696-.672.697.697 0 01.696-.672h18.87c.384 0 .697.299.697.672 0 .37-.313.672-.696.672H4.058zm-2.918.457C.511 7.282 0 6.778 0 6.156 0 5.534.51 5.03 1.14 5.03c.628 0 1.139.504 1.139 1.126 0 .619-.51 1.126-1.14 1.126zm21.789 4.454c.383 0 .696.3.696.672a.684.684 0 01-.696.673H4.058a.684.684 0 01-.697-.673c0-.373.313-.672.696-.672h18.87zM1.139 13.534C.511 13.534 0 13.03 0 12.408c0-.621.51-1.126 1.14-1.126.628 0 1.139.505 1.139 1.126 0 .622-.51 1.126-1.14 1.126zm21.789 4.458c.185 0 .36.07.49.195a.654.654 0 01.206.474c0 .37-.313.672-.696.672H4.058a.697.697 0 01-.697-.672c0-.37.313-.673.696-.673h18.87v.004zM1.139 19.79C.511 19.79 0 19.286 0 18.664c0-.622.51-1.126 1.14-1.126.628 0 1.139.504 1.139 1.126 0 .622-.51 1.126-1.14 1.126z" fill="#5CB615" fill-rule="nonzero"/></svg>
